X:1
T:Frank Gilruth [2]
T:Frank Gilruth [2]
T:Peter Milne
C:Peter Milne
L:1/8
M:4/4
K:D
V:1 treble 
V:1
 B |: A<D F>A D>AF>B | A<D F>A B<E E>d | A<D F>A D>AF>A | (3Bcd (3cde (3dfe (3dcB | %5
 A<D F>A D>AF>B | A<D F>A (3EFG (3ABc | d>AF>A D>AF>A | (3Bcd (3cde f<d d :: g | f>ed>A F>AD>g | %11
 f>ed>A B<e e>g | f>ed>A FADA | (3Bcd (3cde f<dd>g | f>ed>A F>AD>g | a>fd>A (3Bcd (3efg | %16
 (3fag (3fed (3ced (3cBA | (3Bcd (3cde (3dfe (3dcB :| %18
"^Last time before Reel" (3Bcd (3cde (3dba (3gfe :| %19

